X: 1
T: Starkens Polska
R: hambo-polska
Z: John Chambers <jc@trillian.mit.edu>
M: 3/4
L: 1/16
K: Dm
|: "Dm"[D4D] [D3D][E^C] [F3D][GE] | [A3F][^cG] [d4A] [f4d] \
| "A7"[f3d][e^c] [e2c][c2A] [A3E][cA] |1,3 [e^c][fd][ec][cA] "Dm"[d2A][A2F] [F2D][E2A,] :|2,4 "A7"[e^c][fd][ec][cA] "Dm"[d4AD] :|
|: "Bb"[B4D] [d4F] [f4B] | "F"[cA][dB][cA][BG] [A4F] [F4C] \
| "C7"[C4G,] (3[E2C][C2G,][E2C] [G3E][EC] |1,3 "F"[F3A,][GC] [A3F][BG] [c4A] :|2,4 "F"[F4A,] [F4A,] :|

%%sep 1 1 500

